src/assets/sort-az.svg

<svg xmlns="http://www.w3.org/2000/svg" width="13" height="16" fill="none"><path stroke="#16ABF8" stroke-linecap="round" stroke-linejoin="round" d="M9.25 6.5V2.75c0-1.035.465-1.5 1.5-1.5s1.5.465 1.5 1.5V6.5m0-2.25h-3M12.25 14.75h-3l3-5.25h-3M1 10.25l2.25 2.25 2.25-2.25M3.25 3.5v9"/></svg>

<svg width="13" height="16" viewBox="0 0 13 16" fill="none" xmlns="http://www.w3.org/2000/svg">
<path d="M9.25 6.5V2.75C9.25 1.715 9.715 1.25 10.75 1.25C11.785 1.25 12.25 1.715 12.25 2.75V6.5M12.25 4.25H9.25" stroke="#16ABF8" stroke-linecap="round" stroke-linejoin="round"/>
<path d="M12.25 14.75H9.25L12.25 9.5H9.25" stroke="#16ABF8" stroke-linecap="round" stroke-linejoin="round"/>
<path d="M1 10.25L3.25 12.5L5.5 10.25" stroke="#16ABF8" stroke-linecap="round" stroke-linejoin="round"/>
<path d="M3.25 3.5V12.5" stroke="#16ABF8" stroke-linecap="round" stroke-linejoin="round"/>
</svg>
